src/block-icon-sources/image_gallery.svg

<svg xmlns="http://www.w3.org/2000/svg" width="24" height="24" viewBox="0 0 24 24">
    <path fill="#ffd400" d="M2 2h20v10H2z" />
    <path d="M22 2v10H2V2h20m2-2H0v14h24V0z" fill="#333" />
    <path fill="#fff" d="M2 2h10v10H2z" />
    <circle cx="6" cy="6" r="2" fill="#333" />
    <g>
      <path fill="#ffd400" d="M2 20h6v2H2z" />
      <path d="M0 24h10v-6H0zm2-4h6v2H2z" fill="#333" />
      <path fill="#fff" d="M16 20h6v2h-6z" />
      <path d="M14 18v6h10v-6zm8 4h-6v-2h6z" fill="#333" />
    </g>
</svg>

<svg xmlns="http://www.w3.org/2000/svg" width="24" height="24" viewBox="0 0 24 24">
  <title>image_gallery</title>
  <g id="Layer_2" data-name="Layer 2">
    <g id="V2_-_IMAGE_GALLERY" data-name="V2 - IMAGE GALLERY">
      <g>
        <g>
          <rect x="2" y="2" width="20" height="10" style="fill: #ffd400"/>
          <path d="M22,2V12H2V2H22m2-2H0V14H24V0Z" style="fill: #333"/>
        </g>
        <rect x="2" y="2" width="10" height="10" style="fill: #fff"/>
        <circle cx="6" cy="6" r="2" style="fill: #333"/>
        <g>
          <rect x="2" y="20" width="6" height="2" style="fill: #ffd400"/>
          <path d="M0,24H10V18H0Zm2-4H8v2H2Z" style="fill: #333"/>
          <rect x="16" y="20" width="6" height="2" style="fill: #fff"/>
          <path d="M14,18v6H24V18Zm8,4H16V20h6Z" style="fill: #333"/>
        </g>
      </g>
    </g>
  </g>
</svg>
